static/assets/images/networks/bob.svg

<svg width="256" height="256" viewBox="0 0 256 256" fill="none" xmlns="http://www.w3.org/2000/svg">
<path d="M128 256C198.693 256 256 198.693 256 128C256 57.3075 198.693 0 128 0C57.3075 0 0 57.3075 0 128C0 198.693 57.3075 256 128 256Z" fill="#F26514"/>
<path d="M121.366 52.0312H82.3384C80.9952 52.0312 79.9062 53.1201 79.9062 54.4632V93.4904C79.9062 94.8336 80.9952 95.9224 82.3384 95.9224H121.366C122.709 95.9224 123.798 94.8336 123.798 93.4904V54.4632C123.798 53.1201 122.709 52.0312 121.366 52.0312Z" fill="white"/>
<path d="M79.9219 164.17V203.197C79.9219 204.541 81.0104 205.629 82.3536 205.629H121.381C122.724 205.629 123.813 204.541 123.813 203.197V164.17C123.813 162.827 122.724 161.738 121.381 161.738H82.3536C81.0104 161.738 79.9219 162.827 79.9219 164.17Z" fill="white"/>
<path d="M79.9062 109.323V148.35C79.9062 149.693 80.9952 150.782 82.3384 150.782H121.366C122.709 150.782 123.798 149.693 123.798 148.35V109.323C123.798 107.979 122.709 106.891 121.366 106.891H82.3384C80.9952 106.891 79.9062 107.979 79.9062 109.323Z" fill="white"/>
<path d="M134.766 164.174V203.201C134.766 204.545 135.854 205.633 137.198 205.633H176.225C177.568 205.633 178.657 204.545 178.657 203.201V164.174C178.657 162.831 177.568 161.742 176.225 161.742H137.198C135.854 161.742 134.766 162.831 134.766 164.174Z" fill="white"/>
<path d="M134.766 109.311V148.338C134.766 149.681 135.854 150.77 137.198 150.77H176.225C177.568 150.77 178.657 149.681 178.657 148.338V109.311C178.657 107.968 177.568 106.879 176.225 106.879H137.198C135.854 106.879 134.766 107.968 134.766 109.311Z" fill="white"/>
</svg>

<svg xmlns="http://www.w3.org/2000/svg" fill="none" viewBox="0 0 256 256"><path fill="#F26514" d="M128 256c70.693 0 128-57.307 128-128C256 57.308 198.693 0 128 0 57.308 0 0 57.308 0 128s57.308 128 128 128"/><path fill="#fff" d="M121.366 52.031H82.338a2.43 2.43 0 0 0-2.432 2.432V93.49a2.43 2.43 0 0 0 2.432 2.432h39.028a2.43 2.43 0 0 0 2.432-2.432V54.463a2.43 2.43 0 0 0-2.432-2.432M79.922 164.17v39.027a2.43 2.43 0 0 0 2.432 2.432h39.027a2.43 2.43 0 0 0 2.432-2.432V164.17a2.43 2.43 0 0 0-2.432-2.432H82.354a2.43 2.43 0 0 0-2.432 2.432m-.016-54.847v39.027a2.43 2.43 0 0 0 2.432 2.432h39.028a2.43 2.43 0 0 0 2.432-2.432v-39.027a2.43 2.43 0 0 0-2.432-2.432H82.338a2.43 2.43 0 0 0-2.432 2.432m54.86 54.851v39.027a2.43 2.43 0 0 0 2.432 2.432h39.027a2.43 2.43 0 0 0 2.432-2.432v-39.027a2.43 2.43 0 0 0-2.432-2.432h-39.027a2.43 2.43 0 0 0-2.432 2.432m0-54.863v39.027a2.43 2.43 0 0 0 2.432 2.432h39.027a2.43 2.43 0 0 0 2.432-2.432v-39.027a2.43 2.43 0 0 0-2.432-2.432h-39.027a2.43 2.43 0 0 0-2.432 2.432"/></svg>
